assets/images/add-square.svg

<svg width="24" height="24" viewBox="0 0 24 24" fill="none" xmlns="http://www.w3.org/2000/svg">
<g id="R icon">
<g id="vuesax/outline/add-square">
<g id="add-square">
<g id="Vector">
<mask id="path-1-inside-1_1805_12197" fill="white">
<path d="M16 12.75H8C7.59 12.75 7.25 12.41 7.25 12C7.25 11.59 7.59 11.25 8 11.25H16C16.41 11.25 16.75 11.59 16.75 12C16.75 12.41 16.41 12.75 16 12.75Z"/>
</mask>
<path d="M16 12.75H8C7.59 12.75 7.25 12.41 7.25 12C7.25 11.59 7.59 11.25 8 11.25H16C16.41 11.25 16.75 11.59 16.75 12C16.75 12.41 16.41 12.75 16 12.75Z" fill="black"/>
<path d="M16 11.25H8V14.25H16V11.25ZM8 11.25C8.41843 11.25 8.75 11.5816 8.75 12H5.75C5.75 13.2384 6.76157 14.25 8 14.25V11.25ZM8.75 12C8.75 12.4184 8.41843 12.75 8 12.75V9.75C6.76157 9.75 5.75 10.7616 5.75 12H8.75ZM8 12.75H16V9.75H8V12.75ZM16 12.75C15.5816 12.75 15.25 12.4184 15.25 12H18.25C18.25 10.7616 17.2384 9.75 16 9.75V12.75ZM15.25 12C15.25 11.5816 15.5816 11.25 16 11.25V14.25C17.2384 14.25 18.25 13.2384 18.25 12H15.25Z" fill="#111322" mask="url(#path-1-inside-1_1805_12197)"/>
</g>
<g id="Vector_2">
<mask id="path-3-inside-2_1805_12197" fill="white">
<path d="M12 16.75C11.59 16.75 11.25 16.41 11.25 16V8C11.25 7.59 11.59 7.25 12 7.25C12.41 7.25 12.75 7.59 12.75 8V16C12.75 16.41 12.41 16.75 12 16.75Z"/>
</mask>
<path d="M12 16.75C11.59 16.75 11.25 16.41 11.25 16V8C11.25 7.59 11.59 7.25 12 7.25C12.41 7.25 12.75 7.59 12.75 8V16C12.75 16.41 12.41 16.75 12 16.75Z" fill="black"/>
<path d="M12 15.25C12.4184 15.25 12.75 15.5816 12.75 16H9.75C9.75 17.2384 10.7616 18.25 12 18.25V15.25ZM12.75 16V8H9.75V16H12.75ZM12.75 8C12.75 8.41843 12.4184 8.75 12 8.75V5.75C10.7616 5.75 9.75 6.76157 9.75 8H12.75ZM12 8.75C11.5816 8.75 11.25 8.41843 11.25 8H14.25C14.25 6.76157 13.2384 5.75 12 5.75V8.75ZM11.25 8V16H14.25V8H11.25ZM11.25 16C11.25 15.5816 11.5816 15.25 12 15.25V18.25C13.2384 18.25 14.25 17.2384 14.25 16H11.25Z" fill="#111322" mask="url(#path-3-inside-2_1805_12197)"/>
</g>
<path id="Vector_3" d="M15 22.25H9C6.3424 22.25 4.56492 21.6803 3.4423 20.5577C2.31968 19.4351 1.75 17.6576 1.75 15V9C1.75 6.3424 2.31968 4.56492 3.4423 3.4423C4.56492 2.31968 6.3424 1.75 9 1.75H15C17.6576 1.75 19.4351 2.31968 20.5577 3.4423C21.6803 4.56492 22.25 6.3424 22.25 9V15C22.25 17.6576 21.6803 19.4351 20.5577 20.5577C19.4351 21.6803 17.6576 22.25 15 22.25ZM9 2.25C6.65972 2.25 4.92432 2.66107 3.7927 3.7927C2.66107 4.92432 2.25 6.65972 2.25 9V15C2.25 17.3403 2.66107 19.0757 3.7927 20.2073C4.92432 21.3389 6.65972 21.75 9 21.75H15C17.3403 21.75 19.0757 21.3389 20.2073 20.2073C21.3389 19.0757 21.75 17.3403 21.75 15V9C21.75 6.65972 21.3389 4.92432 20.2073 3.7927C19.0757 2.66107 17.3403 2.25 15 2.25H9Z" fill="black" stroke="black"/>
</g>
</g>
</g>
</svg>

<svg width="24" height="24" fill="none" xmlns="http://www.w3.org/2000/svg"><mask id="a" fill="#fff"><path d="M16 12.75H8c-.41 0-.75-.34-.75-.75s.34-.75.75-.75h8c.41 0 .75.34.75.75s-.34.75-.75.75Z"/></mask><path d="M16 12.75H8c-.41 0-.75-.34-.75-.75s.34-.75.75-.75h8c.41 0 .75.34.75.75s-.34.75-.75.75Z" fill="#000"/><path d="M16 11.25H8v3h8v-3Zm-8 0c.418 0 .75.332.75.75h-3A2.255 2.255 0 0 0 8 14.25v-3Zm.75.75c0 .418-.332.75-.75.75v-3A2.255 2.255 0 0 0 5.75 12h3Zm-.75.75h8v-3H8v3Zm8 0a.745.745 0 0 1-.75-.75h3A2.255 2.255 0 0 0 16 9.75v3Zm-.75-.75c0-.418.332-.75.75-.75v3A2.255 2.255 0 0 0 18.25 12h-3Z" fill="#111322" mask="url(#a)"/><mask id="b" fill="#fff"><path d="M12 16.75c-.41 0-.75-.34-.75-.75V8c0-.41.34-.75.75-.75s.75.34.75.75v8c0 .41-.34.75-.75.75Z"/></mask><path d="M12 16.75c-.41 0-.75-.34-.75-.75V8c0-.41.34-.75.75-.75s.75.34.75.75v8c0 .41-.34.75-.75.75Z" fill="#000"/><path d="M12 15.25c.418 0 .75.332.75.75h-3A2.255 2.255 0 0 0 12 18.25v-3Zm.75.75V8h-3v8h3Zm0-8c0 .418-.332.75-.75.75v-3A2.255 2.255 0 0 0 9.75 8h3Zm-.75.75a.745.745 0 0 1-.75-.75h3A2.255 2.255 0 0 0 12 5.75v3ZM11.25 8v8h3V8h-3Zm0 8c0-.418.332-.75.75-.75v3A2.255 2.255 0 0 0 14.25 16h-3Z" fill="#111322" mask="url(#b)"/><path d="M15 22.25H9c-2.658 0-4.435-.57-5.558-1.692C2.32 19.435 1.75 17.658 1.75 15V9c0-2.658.57-4.435 1.692-5.558C4.565 2.32 6.342 1.75 9 1.75h6c2.658 0 4.435.57 5.558 1.692C21.68 4.565 22.25 6.342 22.25 9v6c0 2.658-.57 4.435-1.692 5.558-1.123 1.122-2.9 1.692-5.558 1.692Zm-6-20c-2.34 0-4.076.411-5.207 1.543C2.66 4.924 2.25 6.66 2.25 9v6c0 2.34.411 4.076 1.543 5.207C4.924 21.34 6.66 21.75 9 21.75h6c2.34 0 4.076-.411 5.207-1.543C21.34 19.076 21.75 17.34 21.75 15V9c0-2.34-.411-4.076-1.543-5.207C19.076 2.66 17.34 2.25 15 2.25H9Z" fill="#000" stroke="#000"/></svg>
